!!!OTL: O WUNDERBARES TIEFES SCHWEIGEN
!!!ARE: Europa, Mitteleuropa, Deutschland
!!!SCT: B0225
!!!YEM: Copyright 1995, estate of Helmut Schaffrath.
**kern
*ICvox
*Ivox
*M3/4
*k[b-e-a-]
*E-:
{8B-
8.g
16f
=1
4.e-
8g
8.cc
16b-
=2
8b-
8a-
4.f}
{8f
=3
8.g
16g
4.e-
8e-
=4
8.f
16f
4B-
8r}
{8B-
=5
8e-
8e-
8g
8g
8.b-
16b-
=6
8b-
8ee-
4.dd}
{8cc
=7
8.b-
16b-
8cc
8b-
8.a-
16f
=8
4e-
8r}
==
!!!AGN: Tageszeiten - Lied, Morgen
!!!ONB: ESAC (Essen Associative Code) Database: BOEHME
!!!AMT: simple triple
!!!AIN: vox
!!!EED: Helmut Schaffrath
!!!EEV: 1.0
*-
